X:1
T: Barthol Moor
C:C Sherrit
R:Jig
Q:180
K:D
M:6/8
L:1/16
|:A2|d2A2d2 f4e2|d2c2B2 A4d2|B2d2d2 A2d2d2|c2e2e2 e4f2|
d2A2d2 f4e2|d2c2B2 A2G2F2|G4e2 c2B2c2|d6 d4A2|d6 d4e2|
f2e2d2 a4g2|f4e2 f2d2A2|B2d2d2 A2d2d2|c2e2d2 c2B2A2|
B2G2G2 D2G2G2|A2d2e2 f4A2|G4e2 c2B2c2|d6 d4e2|d6 d4:|
